X: 943
T: Gülşen-i Ezhâr Açdı Her Yana
C: Basmacı Abdi Efendi
O: Turkey
F: http://compmusic.upf.edu/node/140
N: mahur--sarki--agiraksak--gulsen-i_ezhar--basmaci_abdi_efendi
N: makam= mahur
N: form= sarki
N: usul= agiraksak = 9/4
M: 9/4
L: 1/16
K: C ^9/8f   
Q: 1/4=72
%%MIDI tuningsystem comma53
d2g4b2 a3g f2b2 a3g f2a2 g4 d2ef g4  | \
w:  ARANAĞME  | 
fga4ag c'2ba g2fe e6a2 e3d edcd e4  | 
w:   | 
g2fe d2ef g2fe d2e2 d3c edcB c4 BcdB c4  | 
w:   | 
B2c2 B2c2 B2cd cBA2 A3G B2AG G4 d2ef g4  | \
w:   | 
d2g4b2 a3g f2b2 a3g f2a2 g4 d2ef g4  | 
w:  ARANAĞME  | 
fga4ag c'2ba g2fe e6a2 e3d edcd e4  | \
w:   | 
g2fe d2ef g2fe d2e2 d3c edcB c4 BcdB c4  | 
w:   | 
B2c2 B2c2 B2cd cBA2 A3G B2AG G8 z4  | \
w:   | 
g3/2f/ga gab3/2a/ g2b2 a2b2 a2g2 ^f2{g}fe {d}e8 f2{g}fe  | 
w:  *  *  *  *  *  *  *  *  *  Gül *  şen_ i  *  *  *  *  *  *  ez  | 
e2{=f}ed d6e4^9/8f2 g2g^f g2a2 f4 g8  | \
w:  *  *  *  *  *  hâr_ *  aç *  *  *  *  dı   | 
z2gb a2b2 g2c'2 b2a2 a2g4^f2 g2{a}g{a}f .e4 f2ga  | 
w:  her  *  *  *  *  *  *  *  *  *  *  *  *  *  *  *  *  ya  | 
^f4 g8 g2{a}gf f2{g}f_3/4e _2/4e2{f}ed d2{e}d_3/4e dedc dc_1/4Bc  | 
w:  na    | 
d4 d_2/4e^fg .a2a4a2 _bagf e3/2d/c2 _1/4Bcde fga_1/4b c'2_3/4b2  | 
w:  SAZ *  *  *  *  *  Nüz he tiy *  *  *  *  *  *  ye  | 
a2g2 =f2e4.e4ed d3c c3_1/4B B2{c}BA A2{B}AG G4  | \
w:  *  *  *  *  dir  bu  *  kasr_ *  *  *  ı   | 
z2G_1/4B A3c B3d c3e d3g ^fgaf g8 d4  | 
w:  dil  *  *  *  *  *  *  *  *  *  *  *  *  *  *  gû  | 
c3_1/4B A2c2 B3A G2B2 A3G ^FGAF G6d_2/4e d^3/4c=Bc  | 
w:  şa    | 
d2de d^3/4cd2 D2d4_3/4ef e2d2 d2e2 dcB2 c2d2 c2d2  | 
w:  *  *  *  *  *  *  *  Kan de *  dir  *  *  *  gel  | 
^3/4c8-^3/4c2d4_2/4e2 f2g^f =e2g2 ^9/8f4 g8  | \
w:  *  sin  he zâr_ *  *  *  *  ı   | 
z2gb a2b2 g2c'2 b2a2 a2g4^f2 g2{a}gf .e4 f2ga  | 
w:  hoş  *  *  *  *  *  *  *  *  *  *  *  *  *  *  *  ne  | 
^f4 g8 g2{a}gf f2{g}f_3/4e e2{f}ed d2{e}d_2/4e dedc dc_1/4Bc  | 
w:  vâ    | 
d4 d_2/4e^fg .a2a4a2 _bagf e3/2d/c2 _1/4Bcde fga_1/4b c'2_3/4b2  | 
w:  SAZ *  *  *  *  *  Nüz he tiy *  *  *  *  *  *  ye  | 
a2g2 =f2e4.e4ed d3c c3_1/4B B2{c}BA A2{B}AG G4  | \
w:  *  *  *  *  dir  bu  *  kasr_ *  *  *  ı   | 
z2G_1/4B A3c B3d c3e d3g ^fgaf g8 d4  | 
w:  dil  *  *  *  *  *  *  *  *  *  *  *  *  *  *  gû  | 
c3_1/4B A2c2 B3A G2B2 A3G ^FGAF G8 z4  | |


